components/Common/Svg/svgs/titledXamarin.svg

<svg width="96" height="148" viewBox="0 0 96 148" fill="none" xmlns="http://www.w3.org/2000/svg">
<path d="M16.6605 131.736L20.5125 138H18.6585L15.6525 133.104L12.7905 138H10.9725L14.8065 131.736L10.9545 125.454H12.7905L15.8145 130.368L18.6945 125.454H20.5305L16.6605 131.736ZM22.0982 133.032C22.0982 132.024 22.3022 131.142 22.7102 130.386C23.1182 129.618 23.6762 129.024 24.3842 128.604C25.1042 128.184 25.9022 127.974 26.7782 127.974C27.6422 127.974 28.3922 128.16 29.0282 128.532C29.6642 128.904 30.1382 129.372 30.4502 129.936V128.136H32.1062V138H30.4502V136.164C30.1262 136.74 29.6402 137.22 28.9922 137.604C28.3562 137.976 27.6122 138.162 26.7602 138.162C25.8842 138.162 25.0922 137.946 24.3842 137.514C23.6762 137.082 23.1182 136.476 22.7102 135.696C22.3022 134.916 22.0982 134.028 22.0982 133.032ZM30.4502 133.05C30.4502 132.306 30.3002 131.658 30.0002 131.106C29.7002 130.554 29.2922 130.134 28.7762 129.846C28.2722 129.546 27.7142 129.396 27.1022 129.396C26.4902 129.396 25.9322 129.54 25.4282 129.828C24.9242 130.116 24.5222 130.536 24.2222 131.088C23.9222 131.64 23.7722 132.288 23.7722 133.032C23.7722 133.788 23.9222 134.448 24.2222 135.012C24.5222 135.564 24.9242 135.99 25.4282 136.29C25.9322 136.578 26.4902 136.722 27.1022 136.722C27.7142 136.722 28.2722 136.578 28.7762 136.29C29.2922 135.99 29.7002 135.564 30.0002 135.012C30.3002 134.448 30.4502 133.794 30.4502 133.05ZM46.7363 127.956C47.5043 127.956 48.1883 128.118 48.7883 128.442C49.3883 128.754 49.8623 129.228 50.2103 129.864C50.5583 130.5 50.7323 131.274 50.7323 132.186V138H49.1123V132.42C49.1123 131.436 48.8663 130.686 48.3743 130.17C47.8943 129.642 47.2403 129.378 46.4123 129.378C45.5603 129.378 44.8823 129.654 44.3783 130.206C43.8743 130.746 43.6223 131.532 43.6223 132.564V138H42.0023V132.42C42.0023 131.436 41.7563 130.686 41.2643 130.17C40.7843 129.642 40.1303 129.378 39.3023 129.378C38.4503 129.378 37.7723 129.654 37.2683 130.206C36.7643 130.746 36.5123 131.532 36.5123 132.564V138H34.8743V128.136H36.5123V129.558C36.8363 129.042 37.2683 128.646 37.8083 128.37C38.3603 128.094 38.9663 127.956 39.6263 127.956C40.4543 127.956 41.1863 128.142 41.8223 128.514C42.4583 128.886 42.9323 129.432 43.2443 130.152C43.5203 129.456 43.9763 128.916 44.6123 128.532C45.2483 128.148 45.9563 127.956 46.7363 127.956ZM52.8072 133.032C52.8072 132.024 53.0112 131.142 53.4192 130.386C53.8272 129.618 54.3852 129.024 55.0932 128.604C55.8132 128.184 56.6112 127.974 57.4872 127.974C58.3512 127.974 59.1012 128.16 59.7372 128.532C60.3732 128.904 60.8472 129.372 61.1592 129.936V128.136H62.8152V138H61.1592V136.164C60.8352 136.74 60.3492 137.22 59.7012 137.604C59.0652 137.976 58.3212 138.162 57.4692 138.162C56.5932 138.162 55.8012 137.946 55.0932 137.514C54.3852 137.082 53.8272 136.476 53.4192 135.696C53.0112 134.916 52.8072 134.028 52.8072 133.032ZM61.1592 133.05C61.1592 132.306 61.0092 131.658 60.7092 131.106C60.4092 130.554 60.0012 130.134 59.4852 129.846C58.9812 129.546 58.4232 129.396 57.8112 129.396C57.1992 129.396 56.6412 129.54 56.1372 129.828C55.6332 130.116 55.2312 130.536 54.9312 131.088C54.6312 131.64 54.4812 132.288 54.4812 133.032C54.4812 133.788 54.6312 134.448 54.9312 135.012C55.2312 135.564 55.6332 135.99 56.1372 136.29C56.6412 136.578 57.1992 136.722 57.8112 136.722C58.4232 136.722 58.9812 136.578 59.4852 136.29C60.0012 135.99 60.4092 135.564 60.7092 135.012C61.0092 134.448 61.1592 133.794 61.1592 133.05ZM67.2213 129.738C67.5093 129.174 67.9173 128.736 68.4453 128.424C68.9853 128.112 69.6393 127.956 70.4073 127.956V129.648H69.9753C68.1393 129.648 67.2213 130.644 67.2213 132.636V138H65.5833V128.136H67.2213V129.738ZM73.1441 126.534C72.8321 126.534 72.5681 126.426 72.3521 126.21C72.1361 125.994 72.0281 125.73 72.0281 125.418C72.0281 125.106 72.1361 124.842 72.3521 124.626C72.5681 124.41 72.8321 124.302 73.1441 124.302C73.4441 124.302 73.6961 124.41 73.9001 124.626C74.1161 124.842 74.2241 125.106 74.2241 125.418C74.2241 125.73 74.1161 125.994 73.9001 126.21C73.6961 126.426 73.4441 126.534 73.1441 126.534ZM73.9361 128.136V138H72.2981V128.136H73.9361ZM81.5338 127.956C82.7338 127.956 83.7058 128.322 84.4498 129.054C85.1938 129.774 85.5658 130.818 85.5658 132.186V138H83.9458V132.42C83.9458 131.436 83.6998 130.686 83.2078 130.17C82.7158 129.642 82.0438 129.378 81.1918 129.378C80.3278 129.378 79.6378 129.648 79.1218 130.188C78.6178 130.728 78.3658 131.514 78.3658 132.546V138H76.7278V128.136H78.3658V129.54C78.6898 129.036 79.1278 128.646 79.6798 128.37C80.2438 128.094 80.8618 127.956 81.5338 127.956Z" fill="#A0A0A0"/>
<path d="M30.3555 14.293C28.1019 14.2979 25.8959 15.5801 24.7616 17.5361L7.11705 48.2572C6.00005 50.2184 6.00005 52.7819 7.11705 54.7431L24.7616 85.4645C25.8959 87.4205 28.1019 88.7031 30.3555 88.7076H65.6446C67.8982 88.7028 70.1042 87.4205 71.2385 85.4645L88.883 54.7431C90 52.7819 89.9997 50.2184 88.883 48.2572L71.2385 17.5361C70.1042 15.5798 67.8982 14.2975 65.6446 14.293L30.3555 14.293ZM30.6759 32.2655C30.7244 32.2606 30.7753 32.2606 30.8238 32.2655H36.9105C37.0457 32.2699 37.1777 32.3085 37.2941 32.3777C37.4104 32.4469 37.5074 32.5445 37.5761 32.6614L47.9016 51.104C47.9538 51.1955 47.987 51.2968 47.9994 51.4013C48.0124 51.2968 48.0457 51.1955 48.0978 51.104L58.3986 32.6614C58.4696 32.5412 58.5705 32.4415 58.6914 32.3721C58.8124 32.3027 58.9492 32.266 59.0886 32.2655H65.1756C65.7144 32.27 66.1182 32.9505 65.8656 33.4288L55.7865 51.5003L65.8656 69.547C66.142 70.0279 65.7287 70.7397 65.1756 70.7352H59.0886C58.9468 70.7322 58.8083 70.6917 58.6872 70.6178C58.566 70.5439 58.4664 70.4392 58.3986 70.3144L48.0978 51.8714C48.0457 51.7803 48.0124 51.6787 47.9997 51.5745C47.987 51.6791 47.9537 51.7802 47.9016 51.8718L37.5757 70.3144C37.5101 70.4357 37.4145 70.5381 37.2981 70.6118C37.1817 70.6854 37.0483 70.7279 36.9108 70.7352H30.8235C30.2704 70.7401 29.8571 70.0279 30.1335 69.547L40.2126 51.5003L30.1335 33.4288C29.892 32.9924 30.1866 32.3586 30.6755 32.2655H30.6759Z" fill="#BCBCBC"/>
</svg>

<svg width="96" height="148" viewBox="0 0 96 148" fill="none" xmlns="http://www.w3.org/2000/svg"><path d="M16.66 131.736 20.512 138h-1.854l-3.006-4.896L12.791 138h-1.819l3.835-6.264-3.853-6.282h1.836l3.025 4.914 2.88-4.914h1.835l-3.87 6.282Zm5.438 1.296c0-1.008.204-1.89.612-2.646a4.446 4.446 0 0 1 1.674-1.782c.72-.42 1.518-.63 2.394-.63.864 0 1.614.186 2.25.558.636.372 1.11.84 1.422 1.404v-1.8h1.656V138H30.45v-1.836c-.324.576-.81 1.056-1.458 1.44-.636.372-1.38.558-2.232.558-.876 0-1.668-.216-2.376-.648-.708-.432-1.266-1.038-1.674-1.818-.408-.78-.612-1.668-.612-2.664Zm8.352.018c0-.744-.15-1.392-.45-1.944a3.098 3.098 0 0 0-1.224-1.26 3.211 3.211 0 0 0-1.674-.45c-.612 0-1.17.144-1.674.432a3.134 3.134 0 0 0-1.206 1.26c-.3.552-.45 1.2-.45 1.944 0 .756.15 1.416.45 1.98.3.552.702.978 1.206 1.278a3.314 3.314 0 0 0 1.674.432c.612 0 1.17-.144 1.674-.432.516-.3.924-.726 1.224-1.278.3-.564.45-1.218.45-1.962Zm16.286-5.094c.768 0 1.452.162 2.052.486.6.312 1.074.786 1.422 1.422.348.636.522 1.41.522 2.322V138h-1.62v-5.58c0-.984-.246-1.734-.738-2.25-.48-.528-1.134-.792-1.962-.792-.852 0-1.53.276-2.034.828-.504.54-.756 1.326-.756 2.358V138h-1.62v-5.58c0-.984-.246-1.734-.738-2.25-.48-.528-1.134-.792-1.962-.792-.852 0-1.53.276-2.034.828-.504.54-.756 1.326-.756 2.358V138h-1.638v-9.864h1.638v1.422a3.252 3.252 0 0 1 1.296-1.188 4.008 4.008 0 0 1 1.818-.414c.828 0 1.56.186 2.196.558.636.372 1.11.918 1.422 1.638a3.235 3.235 0 0 1 1.368-1.62 4.03 4.03 0 0 1 2.124-.576Zm6.071 5.076c0-1.008.204-1.89.612-2.646a4.446 4.446 0 0 1 1.674-1.782c.72-.42 1.518-.63 2.394-.63.864 0 1.614.186 2.25.558.636.372 1.11.84 1.422 1.404v-1.8h1.656V138H61.16v-1.836c-.324.576-.81 1.056-1.458 1.44-.636.372-1.38.558-2.232.558-.876 0-1.668-.216-2.376-.648-.708-.432-1.266-1.038-1.674-1.818-.408-.78-.612-1.668-.612-2.664Zm8.352.018c0-.744-.15-1.392-.45-1.944a3.098 3.098 0 0 0-1.224-1.26 3.211 3.211 0 0 0-1.674-.45c-.612 0-1.17.144-1.674.432a3.134 3.134 0 0 0-1.206 1.26c-.3.552-.45 1.2-.45 1.944 0 .756.15 1.416.45 1.98.3.552.702.978 1.206 1.278a3.314 3.314 0 0 0 1.674.432c.612 0 1.17-.144 1.674-.432.516-.3.924-.726 1.224-1.278.3-.564.45-1.218.45-1.962Zm6.062-3.312a3.16 3.16 0 0 1 1.224-1.314c.54-.312 1.194-.468 1.962-.468v1.692h-.432c-1.836 0-2.754.996-2.754 2.988V138h-1.638v-9.864h1.638v1.602Zm5.923-3.204c-.312 0-.576-.108-.792-.324a1.077 1.077 0 0 1-.324-.792c0-.312.108-.576.324-.792.216-.216.48-.324.792-.324.3 0 .552.108.756.324.216.216.324.48.324.792 0 .312-.108.576-.324.792a.998.998 0 0 1-.756.324Zm.792 1.602V138h-1.638v-9.864h1.638Zm7.598-.18c1.2 0 2.172.366 2.916 1.098.744.72 1.116 1.764 1.116 3.132V138h-1.62v-5.58c0-.984-.246-1.734-.738-2.25-.492-.528-1.164-.792-2.016-.792-.864 0-1.554.27-2.07.81-.504.54-.756 1.326-.756 2.358V138h-1.638v-9.864h1.638v1.404a3.266 3.266 0 0 1 1.314-1.17 4.16 4.16 0 0 1 1.854-.414Z" fill="#A0A0A0"/><path d="M30.355 14.293c-2.253.005-4.46 1.287-5.593 3.243L7.117 48.257C6 50.218 6 52.782 7.117 54.743l17.645 30.721c1.134 1.957 3.34 3.24 5.593 3.244h35.29c2.253-.005 4.46-1.287 5.594-3.243l17.644-30.722c1.117-1.961 1.117-4.525 0-6.486l-17.644-30.72c-1.135-1.957-3.34-3.24-5.594-3.244h-35.29Zm.32 17.973a.746.746 0 0 1 .149 0h6.086a.802.802 0 0 1 .666.395l10.326 18.443a.788.788 0 0 1 .097.297.801.801 0 0 1 .099-.297l10.3-18.443a.806.806 0 0 1 .69-.395h6.088c.538.004.942.684.69 1.163L55.786 51.5l10.08 18.047c.276.48-.137 1.193-.69 1.188h-6.087a.803.803 0 0 1-.69-.42L48.098 51.87a.793.793 0 0 1-.098-.297.795.795 0 0 1-.098.298L37.576 70.314a.806.806 0 0 1-.665.421h-6.088c-.553.005-.966-.707-.69-1.188L40.214 51.5 30.133 33.43c-.241-.437.054-1.07.543-1.163Z" fill="#BCBCBC"/></svg>
